X:14
T: EIA POPEIA WAS RASSELT IM STROH
N: K0050
O: Europa, Mitteleuropa, Deutschland, Thueringen
R: Kinder -, Wiegen - Lied
M: 3/8
L: 1/16
K: G
 | d3ed2 | B2A2B2 | G2F2G2 | D4z2 |
d3ed2 | B2A2B2 | G2F2G2 | D4z2 |
G3FG2 | A3GA2 | d2d2d2 | A4
c2 | B3AGG | A4D2 | G4G2 | G6

@@@ Tune index: 7351
